art/worksheet/sumSign.svg

<?xml version="1.0" encoding="UTF-8"?>
<svg width="130" height="150" version="1.1" xmlns="http://www.w3.org/2000/svg"><rect x="-5.7473" y="-6.5484" width="145.21" height="168.16" fill="currentBackground" stroke="currentBackground" stroke-width=".37795"/><path d="m10 11v-4h101l3 34c-4-6-5-12-7-15-2-4-4-6-8-8-3-2-8-2-14-2h-47l42 53-47 55h51c9 0 17-1 21-4 5-3 9-10 12-19l3 1-5 41h-105v-4l52-61z" fill="currentColor"/></svg>

<?xml version="1.0" encoding="UTF-8"?>
<svg
   width="130"
   height="150"
   version="1.1"
   id="svg4"
   sodipodi:docname="sum2.svg"
   inkscape:version="1.2.2 (b0a8486541, 2022-12-01)"
   xmlns:inkscape="http://www.inkscape.org/namespaces/inkscape"
   xmlns:sodipodi="http://sodipodi.sourceforge.net/DTD/sodipodi-0.dtd"
   xmlns="http://www.w3.org/2000/svg"
   xmlns:svg="http://www.w3.org/2000/svg"
   xmlns:rdf="http://www.w3.org/1999/02/22-rdf-syntax-ns#"
   xmlns:cc="http://creativecommons.org/ns#"
   xmlns:dc="http://purl.org/dc/elements/1.1/">
<path fill="currentColor" d="M10,11V7H111L114,41V41C110,35 109,29 107,26C105,22 103,20 99,18C96,16 91,16 85,16L38,16L80,69L33,124L84,124C93,124 101,123 105,120C110,117 114,110 117,101L120,102L115,143L10,143V139L62,78z"/>
  <metadata
     id="metadata114">
    <rdf:RDF>
      <cc:Work
         rdf:about="">
        <dc:title>Sum sign</dc:title>
        <dc:source>https://commons.wikimedia.org/wiki/File:%CE%A3_Icon.svg</dc:source>
        <cc:license
           rdf:resource="http://creativecommons.org/publicdomain/zero/1.0/" />
      </cc:Work>
      <cc:License
         rdf:about="http://creativecommons.org/publicdomain/zero/1.0/">
        <cc:permits
           rdf:resource="http://creativecommons.org/ns#Reproduction" />
        <cc:permits
           rdf:resource="http://creativecommons.org/ns#Distribution" />
        <cc:permits
           rdf:resource="http://creativecommons.org/ns#DerivativeWorks" />
      </cc:License>
    </rdf:RDF>
  </metadata>
</svg>
